X: 1540
T: the Same Old Story
T: an sean sgeal cea.dna.
R: reel
B: O'Neill's 1850 "Music of Ireland" #1540
O: Walsh
Z: transcribed by John B. Walsh, walsh@math.ubc.ca 8/23/96
Z: Compacted via repeats and multiple endings [JC]
M: 2/4
L: 1/16
K: G
D2 |: G2(BG) ABcA | BdcA BGAD | G2(BG) ABcA |1 BdcA GDEF :|2 BdcA G2 :|
D2 |: G2(GF) GABd | e^def e=dB[Ad] |1 G2(GF) GABG | ABAG FDEF :|2 gfgd edBG | AGEF G2 |]
